!!!!SEGMENT: pl-kk--kk-i-382--064_anonim--offertorium-nro-5.krn
!!!cenid: 18xx:1566
!!!COM: Anonim
!!!COM-rismID: pe30004985
!!!CDT:
!!!CNT:
!!!OTL: Offertorium Nro 5
!!!PDT:
!!!AGN: Sacred
!!!SMS-siglum: PL-Kk
!!!SMS-shelfmark: Kk.I.382
!!!SMS-shelfwork: 050 W
!!!SMS-variant:
!!!SMS-altvar:
!!!NIFC-rismSourceID: 1001141094
!!!NIFC-islandoraID: pl-kk:6162
!!!URL-pdf-islandora: https://repozytorium.nifc.pl/islandora/object/pl-kk%3A6162/datastream/PDF/view
!!!URL-scan: https://polish.musicsources.pl/pl/lokalizacje/galeria/rekopisy/5994 @EN{Scan on Polish Music Sources Website} @PL{Skany w portalu Dziedzictwo Muzyki Polskiej w otwartym dostępie}
!!!ONB-nifc: UWAGA: Offertoria od skanu 0042 (S/T1), 0114 (T2), 0187 (A/B1), 0264 (B2)
!!!AIN: 1 alto 1 bass 2 tenor
!!!key:
**kern	**text	**kern	**text	**kern	**text	**kern	**text
*part4	*part4	*part3	*part3	*part2	*part2	*part1	*part1
*staff4	*staff4	*staff3	*staff3	*staff2	*staff2	*staff1	*staff1
*Ibass	*	*Itenor	*	*Ialto	*	*Itenor	*
*I"Basso II	*	*I"Tenor II	*	*I"Alto vel Bas I	*	*I"Soprano vel. Tenor I	*
*I'B.II	*	*I'T.II	*	*I'A./B.I	*	*I'S./T.I	*
*clefF4	*	*clefC4	*	*clefC3	*	*clefC1	*
*k[b-]	*	*k[b-]	*	*k[b-]	*	*k[b-]	*
*F:	*	*F:	*	*F:	*	*F:	*
*M3/2	*	*M3/2	*	*M3/2	*	*M3/4	*
=1	=1	=1	=1	=1	=1	=1	=1
*2\right	*	*	*	*2\right	*	*rscale:1/2	*
!LO:TX:t=P:problem=all\right&colon; global	!	!LO:TX:b:rj:t=De Confesore.	!	!LO:TX:b:rj:t=De Confesore.	!	!LO:TX:t=P:problem=metrum 3/4, ale ze względu na pozostałe głosy podnoszę do 3/2	!
!LO:TX:rj:a:t=de Confesoribus in F.	!	!LO:TX:t=P:problem=all\right&colon; global	!	!LO:TX:t=P:problem=all\right&colon; global	!	!LO:TX:t=P:problem=all\right&colon; global	!
2F\	Je-	2A/	Je-	2f\	Je-	2cc\	Je-
2E\	-su	2G/	-su	2g\	-su	2cc\	-su
2F\	co-	2A/	co-	2f\	co-	2cc\	co-
=2	=2	=2	=2	=2	=2	=2	=2
1C/	-ro-	1G/	-ro-	1e\	-ro-	(2.cc\	-ro-
.	.	.	.	.	.	4b-X\)	.
2D\	-na	2F/	-na	2d\	-na	2a\	-na
=3	=3	=3	=3	=3	=3	=3	=3
2BB-/	cel-	1F/	cel-	(2d\	cel-	(2b-\	cel-
2.C/	.	.	.	2c\)	.	2.g\)	.
.	.	2E/	-si-	2c\	-si-	.	.
4C/	-si-	.	.	.	.	4g\	-si-
=4	=4	=4	=4	=4	=4	=4	=4
*	*	*	*	*	*	*2\right	*
1.F\	-or	1.F/	-or	1.c\	-or	1.a\	-or
!	!	!	!	!LO:LB:g=original	!	!	!
=5	=5	=5	=5	=5	=5	=5	=5
*	*	*2\right	*	*	*	*	*
2F\	et	2A\	et	2f\	et	2cc\	et
2D\	ve-	2d\	ve-	2f\	ve-	2ff\	ve-
(4E-X\	-ri-	2c\	-ri-	2g\	-ri-	2ee-X\	-ri-
4F\)	.	.	.	.	.	.	.
=6	=6	=6	=6	=6	=6	=6	=6
1G\	-tas	1Bn\	-tas	1g\	-tas	1dd\	-tas
2E-X\	sub-	2c\	sub-	2g\	sub-	2ee-X\	sub-
!LO:LB:g=original	!	!LO:LB:g=original	!	!	!	!LO:LB:g=original	!
=7	=7	=7	=7	=7	=7	=7	=7
(2F\	-li-	1c\	-li-	(2a-X\	-li-	1dd\	-li-
2G\)	.	.	.	2g\)	.	.	.
2GG/	-mi-	2Bn\	-mi-	2g\	-mi-	2dd\	-mi-
=8	=8	=8	=8	=8	=8	=8	=8
1.C/	-or	1.c\	-or	1.g\	-or	1.cc\	-or
=9	=9	=9	=9	=9	=9	=9	=9
2C\	qui	2G/	qui	2e\	qui	2cc\	qui
2D\	con-	2B-\	con-	2d\	con-	2f/	con-
2E\	-fi-	2B-\	-fi-	2c\	-fi-	2g/	-fi-
=10	=10	=10	=10	=10	=10	=10	=10
1F\	-ten-	(4A\	-ten-	1c\	-ten-	1a\	-ten-
.	.	4G\	.	.	.	.	.
.	.	2F/)	.	.	.	.	.
2BB-/	-ti	2F/	-ti	2d\	-ti	2b-X\	-ti
=11	=11	=11	=11	=11	=11	=11	=11
2.C/	ser-	2.E/	ser-	2.c\	ser-	2.g\	ser-
4C/	-vu-	4E/	-vu-	4c\	-vu-	4g\	-vu-
2C/	-lo	2E/	-lo	2c\	-lo	2g\	-lo
!	!	!	!	!LO:LB:g=original	!	!	!
=12	=12	=12	=12	=12	=12	=12	=12
2AA/	red-	2c\	red-	2e\	red-	2cc\	red-
2BB-/	-dis	2B-X\	-dis	2g\	-dis	2dd\	-dis
2C/	pe-	2B-\	pe-	2g\	pe-	2ee\	per-
!	!	!	!	!	!	!LO:LB:g=original	!
=13	=13	=13	=13	=13	=13	=13	=13
1D\	-ren-	1A\	-ren-	1f\	-ren-	1ff\	-en-
2AA/	-ne	2A\	-ne	2f\	-ne	2cc\	-ne
!LO:LB:g=original	!	!LO:LB:g=original	!	!	!	!	!
=14	=14	=14	=14	=14	=14	=14	=14
(2BB-/	pre-	1G/	pre-	1f\	pre-	(2dd\	pre-
2.C/)	.	.	.	.	.	2.cc\)	.
.	.	2G/	-mi-	2e\	-mi-	.	.
4C/	-mi-	.	.	.	.	4cc\	-mi-
=15	=15	=15	=15	=15	=15	=15	=15
1.F\	-um	1.A\	-um	1.f\	-um.	1.cc\	-um,
!	!	!	!	!	!	!LO:TX:b:t=V&colon;S&colon;	!
!	!	!	!	!	!	!LO:PB:g=original	!
=16|!	=16|!	=16|!	=16|!	=16|!	=16|!	=16|!	=16|!
*M4/4	*	*M4/4	*	*M4/4	*	*M4/4	*
*met(c)	*	*met(c)	*	*met(c)	*	*met(c)	*
*	*	*	*	*	*	*rscale:1	*
!LO:TX:a:t=P:problem= metrumm C z kropką	!	!LO:TX:a:t=P:problem= metrumm C z przekreśloną kropką	!	!LO:TX:a:t=P:problem= metrum C z kropką	!	!LO:TX:a:t=P:problem= metrumm C z kropką	!
2r	.	2r	.	2r	.	2r	.
2F\	Da	2A\	Da	2f\	Da	2cc\	Da
=17	=17	=17	=17	=17	=17	=17	=17
2E\	su-	2G/	su-	2g\	su-	2cc\	su-
2F\	-pli-	2A/	-pli-	2f\	-pli-	2cc\	-pli-
=18	=18	=18	=18	=18	=18	=18	=18
2BB-/	-can-	2F/	-can-	2d\	-can-	2b-\	-can-
2D/	-ti	2F/	-ti	2d\	-ti	2a\	-ti
!	!	!	!	!LO:LB:g=original	!	!	!
=19	=19	=19	=19	=19	=19	=19	=19
2BB-/	ce-	2.F/	ce-	2d\	ce-	2.g\	ce-
2C/	-tu-	.	.	4.c\	.	.	.
.	.	4E/	-tu-	.	.	4g\	-tu-
.	.	.	.	8c\	-tu-	.	.
=20	=20	=20	=20	=20	=20	=20	=20
2FF/	-i	2F/	-i	2c\	-i	2a\	-i
2F\	hu-	2A/	hu-	2f\	hu-	2cc\	hu-
=21	=21	=21	=21	=21	=21	=21	=21
2D\	-ius	2B-\	-jus	2f\	-ius	2dd\	-jus
2E-X\	ro-	2G/	ro-	2e-X\	ro-	2b-X\	ro-
!LO:LB:g=original	!	!	!	!	!	!	!
=22	=22	=22	=22	=22	=22	=22	=22
2C/	-ga-	2G/	-ga-	2e-X\	-ga-	2ee-X\	-ga
2D/	-tu	2B-\	-tu	2f\	-tu	2dd\	tu
!	!	!LO:LB:g=original	!	!	!	!	!
=23	=23	=23	=23	=23	=23	=23	=23
2E-X\	no-	2.B-\	no-	(2g\	no-	2.cc\	no-
2F\	-xi-	.	.	4f\)	.	.	.
.	.	4A\	-xi-	4f\	-xi-	4cc\	-xi-
!	!	!	!	!	!	!LO:LB:g=original	!
=24	=24	=24	=24	=24	=24	=24	=24
2BB-/	-i	2B-\	-i	2f\	-i	2dd\	-i
2GG/	re-	2d\	re	2g\	re-	2b-\	re
=25	=25	=25	=25	=25	=25	=25	=25
2AA/	-mi-	2c\	mi-	2e-X\	-mi-	2a\	mi-
2BB-/	-si-	2B-\	-si-	2d\	-si-	2g\	-si-
!	!	!	!	!LO:LB:g=original	!	!	!
=26	=26	=26	=26	=26	=26	=26	=26
2D\	-o-	2A\	-o-	2d\	-o-	2f#X/	-o-
2E-X\	-nem	2G/	-nem	2c\	-nem	2g/	-nem
=27	=27	=27	=27	=27	=27	=27	=27
2.D\	cri-	2.A/	cri-	2.d\	cri-	2.f#X/	ci-
4D\	-mi-	4A/	-mi-	4d\	-mi-	4f#/	-mi-
=28	=28	=28	=28	=28	=28	=28	=28
2D\	-nis	2F#X/	-nis	2d\	-nis	2a\	-nis
2AA/	rum-	2A/	rum-	2e-X\	rum-	2ccn\	rum-
=29	=29	=29	=29	=29	=29	=29	=29
2BB-X/	-pen	2Fn/	-pen	2d\	-pen	2dd\	-pen
2GG/	do-	2G/	do-	2d\	do-	2b-\	do-
!	!	!LO:TX:b:t=V&colon;S&colon;	!	!	!	!	!
!LO:LB:g=original	!	!LO:PB:g=original	!	!	!	!	!
=30	=30	=30	=30	=30	=30	=30	=30
2FF/	-ne-	2A/	-ne-	2f\	-ne-	2cc\	-ne-
2AA/	-xu	2F/	-xu	2c\	-xu	2a\	-xum
!	!	!	!	!	!	!LO:LB:g=original	!
=31	=31	=31	=31	=31	=31	=31	=31
2.C/	vin-	2.F/	vin-	2.c\	vin-	2.g\	vin-
4C/	-cu-	4E/	-cu-	4c\	-cu-	4g\	-cu-
=32	=32	=32	=32	=32	=32	=32	=32
1F\	-li.	1F/	-li	1c\	-li.	1a\	-li,
!	!	!	!	!LO:LB:g=original	!	!	!
=33|!	=33|!	=33|!	=33|!	=33|!	=33|!	=33|!	=33|!
*M3/2	*	*M3/2	*	*M3/2	*	*M3/4	*
*	*	*k[b-]	*	*k[b-]	*	*k[b-]	*
*	*	*	*	*	*	*rscale:1/2	*
!	!	!	!	!	!	!LO:TX:t=P:problem=metrum 3/4, ale ze względu na pozostałe głosy podnoszę do 3/2	!
2F\	An-	2A\	an-	2f\	An-	2cc\	an-
2E\	-ni-	2G/	-ni-	2g\	-ni-	2cc\	-ni-
2F\	-re	2A\	-re	2f\	-re	2cc\	-re
=34	=34	=34	=34	=34	=34	=34	=34
1C/	ver-	1G/	ver-	1e\	ver-	(2.cc\	ver-
.	.	.	.	.	.	4b-\)	.
2D\	-so	2F/	-so	2d\	-so	2a\	-so
=35	=35	=35	=35	=35	=35	=35	=35
2BB-/	tem-	1F/	tem-	(2d\	tem-	(2b-\	tem-
2.C/	.	.	.	2.c\)	.	2g\)	.
.	.	2E/	-po-	.	.	2g\	-po-
4C/	-po-	.	.	4c\	-po-	.	.
=36	=36	=36	=36	=36	=36	=36	=36
1.F\	-re	1.F/	-re	1.c\	-re	1.a\	-re,
!LO:LB:g=original	!	!	!	!	!	!	!
=37	=37	=37	=37	=37	=37	=37	=37
2F\	Di-	2A\	di-	2f\	di-	2cc\	di-
2D\	-es	2d\	-es	2f\	-es	2ff\	-es
(4E-X\	re-	2c\	re-	2g\	re-	2ee-X\	re-
4F\)	.	.	.	.	.	.	.
!	!	!	!	!	!	!LO:LB:g=original	!
=38	=38	=38	=38	=38	=38	=38	=38
(2.G\	-ful-	1Bn\	-ful-	1g\	-ful-	1dd\	-ful-
4F\)	.	.	.	.	.	.	.
2E-X\	-sit	2c\	-sis	2g\	-sit	2ee-X\	-sit
!	!	!LO:LB:g=original	!	!	!	!	!
=39	=39	=39	=39	=39	=39	=39	=39
(2F\	lu-	1c\	lu-	(2a-X\	lu-	1dd\	lu-
2G\)	.	.	.	2.g\)	.	.	.
2GG/	-mi-	2Bn\	-mi-	.	.	2dd\	-mi-
.	.	.	.	4g\	-mi-	.	.
=40	=40	=40	=40	=40	=40	=40	=40
1.C/	-ne.	1.c\	-ne	1.g\	-ne	1.cc\	-ne
!	!	!	!	!LO:LB:g=original	!	!	!
=41	=41	=41	=41	=41	=41	=41	=41
2C/	quo	2G/	quo	2en\	quo	2cc\	quo
2D\	san-	2B-\	san-	2d\	san-	2f/	sanc-
2En\	-ctus	2B-\	-ctus	2c\	-ctus	2g/	-tus
=42	=42	=42	=42	=42	=42	=42	=42
1F\	hic	(4A/	hic	1c\	hic	1a\	hic
.	.	4G/)	.	.	.	.	.
.	.	2F/	.	.	.	.	.
2BB-/	de	2F/	de	2d\	de	2b-\	de
=43	=43	=43	=43	=43	=43	=43	=43
2.C/	cor-	2.E/	cor-	2.c\	cor-	2.g\	cor-
4C/	-po-	4E/	-po-	4c\	-po-	4g\	-po-
2C/	-re	2E/	-re	2c\	-re	2g\	-re
!LO:LB:g=original	!	!	!	!	!	!	!
=44	=44	=44	=44	=44	=44	=44	=44
2AA/	mi-	2c\	mi-	2e\	mi-	2cc\	mi-
2BB-/	-gra-	2B-X\	-gra-	2g\	-gra-	2dd\	-gra-
2C/	-vit	2B-\	-vit	2g\	-vit	2ee\	-vit
!	!	!	!	!	!	!LO:LB:g=original	!
=45	=45	=45	=45	=45	=45	=45	=45
1D\	in-	1A\	in-	1f\	in-	1ff\	in-
2AA/	-ter	2A\	-ter	2f\	-ter	2cc\	-ter
=46	=46	=46	=46	=46	=46	=46	=46
2BB-/	si-	1G/	si-	1f\	si-	(2dd\	si-
2.C/	.	.	.	.	.	2.cc\)	.
.	.	2G/	-de-	2e\	-de-	.	.
4C/	-de-	.	.	.	.	4cc\	-de-
=47	=47	=47	=47	=47	=47	=47	=47
!LO:TX:b:t=De Apostolis in G mol	!	!	!	!	!	!	!
1.F\	-ra.	1.A\	-ra	1.f\	-ra.	1.cc\	-ra.
==	==	==	==	==	==	==	==
*-	*-	*-	*-	*-	*-	*-	*-
!!!system-decoration: [(s1,s2,s3,s4)]
!!!EED: Leszek Kubiak
!!!EEV: 2021-02-12
!!!ENC: Andrzej Gręziak
!!!END: 2021-01-31
!!!YEC: Copyright 2022 Narodowy Instytut Fryderyka Chopina (https://polishscores.org)
!!!YEM: Licence CC BY 4.0 (https://creativecommons.org/licenses/by/4.0)
